-----BEGIN PGP PUBLIC KEY BLOCK-----
Comment: 2133 BC60 0AB1 33E1 D826  D173 FE43 009C 4607 B1FB
Comment: Nick Mathewson <nickm@alum.mit.edu>
Comment: Nick Mathewson <nickm@freehaven.net>
Comment: Nick Mathewson <nickm@torproject.org>
Comment: Nick Mathewson <nickm@wangafu.net>

xsFNBFfinwwBEADNzG/Q6YTrH7oSfUERhopwCWWn/gsprtnUFK+O4enXPXQlisGt
OVNbc5GWoZibNPowjORN+kADB+ce+VBmVeh+4ZeJDjpsc+WXuVajDc0wNwG3I36m
8uNRPLMftBcxS1zUsMpwaqff5sDoqlBTwrvfLpHT0W1ecJX8Ew10zim58DzwQisR
Uv1rsGiyH/dFzs8m3jPdNjDZyyzGQK62hwp6Y/m11PiMYgGrvAa1ofjfkGRVxUgo
UUG8JG/AhGvMnHJjV923A7I8MspOm4H76wlEQLesPHJ5WPSBXTZ5jVgdWdp50fPR
JZOUT6gwkYF59SeZOcSFecdyuSb0W68/klD5PX0G8qQ5ko9beNm7Rs2aJKvY1MHU
n5rb00aulQFaYLFJ7LOTDqYDUkKYp7n4hw1X1yXO1MUYyk9J9WNO/Uo2psKXcBsd
ZjdEWj1dWHOhwswygndL7RxK/17psmod055S0uYkjA74J2eRSmPZ7ErIfUh85rQw
DZyYKh7B6AGjcpA1YyrAh6BgyJncP9x21dmip0ENrfg5rpcfHpTrOF8To8fpo4/y
vUL8kCxCCPJtkJiuXkGhV3oZsj2tWGvAclYqO7xe84vks+GgjG9Ydfga8JrvPMDz
YLX7aTDnZRiU2Z+FvtABMjmmPjAHj3hMx/o25Na4bQ7wBAPEUiESsnh1HwARAQAB
zSNOaWNrIE1hdGhld3NvbiA8bmlja21AYWx1bS5taXQuZWR1PsLBmAQTAQgAKwIb
AQIeAQIXgAIZAQULCQgHAgYVCgkICwIFFgMCAQAFAmoxYy8FCRfyXqMAIQkQ/kMA
nEYHsfsWIQQhM7xgCrEz4dgm0XP+QwCcRgex+ydYEACj+sH1SaX9gUjtuMj7zGY5
RbYpnry7egdm1A3BodlN3scYThyjCNLvskvdQYbQCrC4Idd2GxxnHTk370Jeo/82
+Fs0sZORamuUFDp+62d5iWaOjKj0BlnW1Gap1seAMC6OZXAogHFpZI6PH6Wa7F+f
E7DIlJvO2391tJJBFsmjhEx+5iMg3A35hax69mp+K5oIfYbu14o2LisUDPIpF4Ej
yql4/Gu/PHLe+sfJQGyKQPLQRknM7QUSvmaFMg848FqBvK6DYAmttaRr9LG8hmyO
hTrGKyKhKrHlY4NfbONEUJSpg9wm/vuFZa753uKffitm1hdoztalhRe1twFZz2VP
DcaPHnTI7uwBSjpsQVKOvnn9WI50FdJxa7Y/XA9NsXl5Gn09ZPNGzjJLNUatIhyv
6q5vPVVIEkL9xX+AIi3cbSONa6N2V+rOLx+SrRgt8ZKm0kxo0lkAE0y6f68lIRwW
FT92LKWuAtuXYlQphY5+FwwG85LWAmSOk/abrHzNyQcVTMKcOZ+sta6RDfCBlgLQ
sIiHEgu8A8NnzYjmRribntJKp1dRTsp2psEkkjFAGrGxVUypWCZZ8t/QVQqZ91zE
Q/kBUqQ4R4Avifa4OB8z9q7fDLnzAyiLslxb4Y3DwpTzT+7lzRcpFemTJ3fO3NW+
wL2h6z4ni9kf877v0AhFs8LBmAQTAQgAKwIbAQIeAQIXgAIZAQULCQgHAgYVCgkI
CwIFFgMCAQAFAl97G2UFCRD+fdkAIQkQ/kMAnEYHsfsWIQQhM7xgCrEz4dgm0XP+
QwCcRgex+yDyD/9Og8rgcNYOYc4twUqLa/fdD9pMDlOx9BvWnAe8BR6kAF/5uPCq
7mj/YrccWqGfsdWXu+CmoVwCN/W70fsmH5Htu5rChZAjGLlxZbQYi5f2C63OBXI/
/frLqutCdnBxj68i+Lt+ZHHRVV35tkw6x3n9clDbCQsPD/qmlFYg9jk+D3szf4IP
bqsyidZyCFGQI72DQ/ADGapgdkLFwmnloRREs7OHw20OWXGyhpkrgf3vi1a1aTTg
FYeSgClA8WDRhifdxN+0AhqeaC24oBFbmcAjM+cJLbnvoOMrJRsCKzX2dhGC/4K0
xlCiGTI0R4OjB/tSAVMj4CRtQGPHAo/vVTtlb6rKdFhPXbmNO1MY46RfkFCPHZCD
+w5WztSTJ7PDUYVaaRriKOkdGyy8R0rWYpkuofw6wwbpcTXEgM4hGew0nNHRzi7c
gY4Lf5MBBqiSfUTjkJwXBvf2fqR4UtUQhr5edgOKXlALrD7XpMy8rfyrp1LlCcTT
g5J6utK5h9fggWyWGRotd3u4ABvuqtJDMP/+OaaIqODIW5GdIc7+eW/t+y+kK0U0
1fmy22FrKG2YrG8FKXJOACtw2I/ShApUTcs7zLaoBEZjV44EwwLSaXRbTncD9x9A
4Br7ZSpCW8JB/9Bt6fbgGHi0rJbpOF7aTho1Ig323IhQAgBJ+A62jJ7on8LBmAQT
AQgAKwIbAQIeAQIXgAIZAQULCQgHAgYVCgkICwIFFgMCAQAFAlufmeAFCQd/YdQA
IQkQ/kMAnEYHsfsWIQQhM7xgCrEz4dgm0XP+QwCcRgex+1zzEACehF5uA2gdSJQq
x/uVPkGF8MKyogUfphzwVrohAUlG2OJzmFfoytOuO45Y5bsj1y+xFB5YuUamowr6
mT34XgLkcTS5cs54SXi43bf6gW0xILTr6EMLJpg8BKIIkrRPxazcqYBgqh+jSwBL
xwDZ/VAQ0bIvyenHDw4niLsZUGuZLEArEc106dfft/V1pHkrSGmh8dMP8e/CMgEB
xWZcQyPPP2ZlF3yNhVpDp6eXVnCYWCTxn/xOJ/2gWymenAeTsRAF97gLdn8+tuUb
qBUfUdNwY1tS/EScChGuX4gX/LBuvXcZp0VqnmxuR+DIQnphvT79Qhqiv2wIsiCu
o9g6Y+yuxeo/9Anj6+ytDKxoxzr09NW57WSNI5zVhlkvTNfDN5n3RzOC6H/JAPEv
yiCeoBQItDeVvDlbc1MdtCANRtnEXK02HM8jqRDQyjs9ugkSIvEsiVpn0fDdBxOW
JaLk/sS9PVcqOItiXJNdrefQ5yrwp7DSzF7rnQzgC0xqssytre54zG5S1qv8S9AN
w5nCOGrl9jrsU8lZuVCZFJPtlE9hrc153tjSItO5PPuf8T/OL/51ojWmghbj8kn8
tcZk2BEbdxF4ArOa/qjgpdi+I833txBLCTTysvClkorVI3HPVaDomePCwwRG2PCw
wxZYmJL8E8hyuXzY6i5TRPCY+Ml+PcLBmAQTAQgAKwIbAQIeAQIXgAUJBaOhPQIZ
AQUCV+Vi1wULCQgHAgYVCgkICwIFFgMCAQAAIQkQ/kMAnEYHsfsWIQQhM7xgCrEz
4dgm0XP+QwCcRgex+87WD/wP/UW4QljFB74PmDKY9c0uXmpbH3M9fyuLxSVofdYP
CU21mwjCwiWLBVhBGiMEJ9KtSQYFcK0mbcWG9dB2vvCyfgvbaGZPs0gczYpSo84V
64a5VX5uDujQQqWgZYVLal462M0A40mMRNxLrOzMMeSxZUtFjsvqygLjpTwuYJWf
dE24A/TAUUEX611eHzniQtRegfTGZwD5A6HA+WmSLRIgcPXfHNTwq75nHhLgFari
qRjzmfJfVkQjHhDC8tBp+NHkUv1b1me6b+POBnwYvOoH+tlKw4HLN5j1eXC/7H8L
xyC6XOQyq4uSMrVXIcLFVo4T6uG+yuboUknV97QogWCKuGUtl8zFF52EfZmUa1jx
kpF9F6OywY0K3tAYc/qXODQuWjmCPl3gk3CPK5B2P7QT6nhc+wCfwLQasMZxJv/m
7s/7jcyyAW2+EUi0Oo1m75XWH9/3s3TbZeFfFT6FsX4obNIWauBwr5cWRaeG0qoA
kIOysY57v9aKzc0bQaqJLspWiWMLs2CWXH4GGZf7glGeVgK/VY7pICGroT5PWhcQ
OmUJ8rx+Sj7fQ5UNtczA9mEFtCuFfZ9IXVs8kOaSTnCtH9NeeEwy/iFB8cgIEysx
T7T1n+IpT3mPjvVTGK1fu/EVhjk5VCgU4B0eCNsL4tSWXy41fRFA0auy/0o99G0T
7cLBlgQTAQgAKQIbAQcLCQgHAwIBBhUIAgkKCwQWAgMBAh4BAheABQJX4qXJBQkF
o6E9ACEJEP5DAJxGB7H7FiEEITO8YAqxM+HYJtFz/kMAnEYHsftOcBAAmz9dCTlb
HkNv+8zO3BHehEw+8bg1UecDfx+K3yAhZIywHwBYnIxjU/9wWQlGmdCj98Xzdn9e
Kc/SkpMRD3v5Qiq+2d1JMtQVpwyKsaHLHTblpNqD44uHIh7jGrX1lkTLf5g2r2c4
YwiK9bEbK9ZRWNBhXCTYAC0WwLUVm1nilW217hh39Wric5N+Y7556NWYK84cqvfE
cRPb6myJVLbePdoEkhKGKQ9ubFGD6X5VsTtEuOT3Qy/c+caGpV+CcQShhBn+SmkT
t+cVvqkeA/jMFVEKhhU/eoIu/xbOjJmz+ydgi0CAYgce/o4sMqflJJKeYmGjf7Pr
898JQFstvPri8XQi2Pz7qbAaV6cynam09zya+QSe98drXV6aYlWcVUlMpj2qSt+3
+RptvsB7M8TtOAW43S1N+hKxbTSo24tCJG5t2qSdDbQLcgsJSKo95/tZqPCWRBt7
kokTV/Ycro/cWFy94aQHl4bnfv/QE7qAf8y/ULO76x5sM5xfA940+o0QUCpSZfGH
lQXOdCoRMV6PoM8/QeQxSUadmLejmDqOtScyfMboYsFgOYsCbbrHWbtgyosjbdvE
Mu4GMgNmYuZyfaRgD8xsmFtaD2aeaKzRgr/mddtuxnwa02Es/vRP+ZFbdzeWjJNi
1faa2yZoarrhTDZeXBAS11mumJA2dHwTGsfNJE5pY2sgTWF0aGV3c29uIDxuaWNr
bUBmcmVlaGF2ZW4ubmV0PsLBlQQTAQgAKAIbAQIeAQIXgAULCQgHAgYVCgkICwIF
FgMCAQAFAmoxYy8FCRfyXqMAIQkQ/kMAnEYHsfsWIQQhM7xgCrEz4dgm0XP+QwCc
Rgex+xnwEACt9Lx12/a7fh9qkjmcA3w8RcAucPn4vEu0mNu+T7I09YoZtoxW6s0r
2lukZ/0923UtvD2rKTKz3UefdmuiDcXhpQ4krTatypFAwEKtd95C9KBn5YzIyyAR
kI90RqTYxev6JK1Uu0fqwvajXDdONu5a76PStzJ37OF1RY3vtTZMFxu6HxwZP2yv
yhlh2JU9eI6AP8djJAJY2pCnkXa7favbXE/e4PKQOVFFHeOhBReGlMGkYWS1arq5
VRDi75LSeMjggJ3drvbIHl3Z7Ti5HBLLe7FnY1ZqEaqv96Zte4ki3f81Q9//3MxX
sKoe43vy9xI8gobPeFtAd1FeKMumSfHsqV0T089bGewoG9WaVy1EmRHN2PmqL2D2
5W21SPbLf9m2eWTdDBrb5+VpWEr3SLaSWPAZTpqmi/H9Kv79qtRpsH0wmw9G8HD7
QPb5gnhstbBiXpJqd8LGBlKOPN/+OdWYgSUQJdLMhprpt7QoXKg37EWtmx3lJDsV
DKk6TWmJaHC36hdwAMp3m0PA1PTavJI+jonABE3tvJi1og8fJfwYiXCwjwrYaQUP
nTsWbOq3og+anQXF71jbs0G0Vs4lyjRxaXsdAbmctS9H+Vg0I1bPJIFrPmOFQswr
je2Tyaqoer0P0Q9/Xvo+0J1/DyX/rCnuxF5EoeupsDDMMXKkzeuHeMLBlQQTAQgA
KAIbAQIeAQIXgAULCQgHAgYVCgkICwIFFgMCAQAFAl97G3EFCRD+fdkAIQkQ/kMA
nEYHsfsWIQQhM7xgCrEz4dgm0XP+QwCcRgex+3gcD/0dzqQ58eybRTqtts9I3C4z
y8Jj/kKoDpSL0oqo+ukqZaRITx3IH+A4AbtNkcBPDjQDKOjHBb1B+LbyNjR91/Fh
E99gDy3vP9nMYbWaR/OoHZ8E7tcRjF0Mc+bEaaSITraKMBlofv3v7faMACzpv/iL
B58W1+HXSDeoKAf5q5XqUVUVDgwZxNCvaGRu1Z56we9yKdPoamg1ZohnTp+y0oIJ
e4qe1WeYVB18Lx4N3VJJymqbnDFxQmqnXpb2BbdzWENmUTgLAFS3YuJNnWPf1hjQ
oBR23UhrqydfchsLbb+e7fhlLBtzlxxCDKudnZDOCzp23VUdpolf44RUOyeovpo2
ebWCYsK1/bhUjksx241lQqubZY9Th7NfLNMwzudt6dmFkti1mog6U4Z0VNPdohrD
SWR2iZswNE/u04v7mqqmPQo7IWEgXYtF1ENS6MM1g3wbFY1f7vgTfNBWKLMyc0wJ
oiVtxjq8W5IXW+J2KbTypmOGEkpS33zkNMvWPnlGDBntt8YXo7GCE0ukxzrp1pm/
45YCtdkXfAMq2VbQ+uLM8QGKklyfa8f5NeiiJdc+ycySEcwSK3R3vB07bsvc7P6E
ICAjzK6LShekwox5B+6a2RXAhdPSI0XHPIoaWfwvfdR0uF+KTdTHUDLhCFlSAI8S
ofvoDGGMzI11KgbI147gYcLBlQQTAQgAKAIbAQIeAQIXgAULCQgHAgYVCgkICwIF
FgMCAQAFAlufmfAFCQd/YdQAIQkQ/kMAnEYHsfsWIQQhM7xgCrEz4dgm0XP+QwCc
Rgex+8yID/9lIunYmqatd4mTaiaAJIUHMjFh7d7J+3pXwOV2bpg/eBpFlonIOC/8
xnj+2CiKVusjF9WXoakOQUyXizPD7+fnUDzgQjmXxQTO3TCiXhSRdDdrcYcwZ3Y+
0rkK66QOv66S+NQGonG1qOJPjV8XSpLnuWb7bdk5qlaGquJIeoVQQpMZB9qe0iwx
gKeegJuOCRTQnPI7hoCpJX9+PowWR53JMi/Tks76B7XP/KF2TLR226oD3S/t4Jup
7LU5xP/IDCKWf641ZOoNdrCRc84nxeXcChjcX2eGNuBaceplLRQD3+ONZ9QEHuQk
bLfCQzs/NQTXxrB5NwBaBblJkNEY1i7GXeURGFE4ChD5eb6ba7m/uE7UOZ+FwB0O
pgUHIRlHrD/maVsd17mIsNo6WNRypXuzAlNNOVFgtnwVOpfm/OURzkLXeFjxAn4m
J/ca9SBYxtj9EYSp4OM1FjLNbm95Z1cQ7nxwQA98ZEa1yAr/TY6Z1Zpe8nHyevsB
LBWNPObW7nUjmfvIYzP7/xJTimwkagLGgSi+0R01HlHk1TlIYd5KyOFdXLui4eEK
5WFppqSCq4U2j8vaRwNKfUFryYOihBvpcZblRSl6+kuatcYF+m6tUQ0Pi5p5jO/n
ORRm9a8ertRSaxshcsavjrXpe7ZJ+yCCIe15MHVBSA/g687Wo8qJFMLBlQQTAQgA
KAIbAQUJBaOhPQIeAQIXgAUCV+Vi4QULCQgHAgYVCgkICwIFFgMCAQAAIQkQ/kMA
nEYHsfsWIQQhM7xgCrEz4dgm0XP+QwCcRgex+1BUEAC84/LtH65xa3pJKDdvDsJS
0mjPG6N80qkhv3FYnquE1YI9vKSQDJace5YvFpGIANf5pMEugaA00kcFzmtiBxeA
VoTbo7b9AQRdX/S8ms9ybNHW3ozR/gn0FOahz7MtyAhjA8mXkd/JM/L7Nn/OisnY
I/mHqhoJiKjJdU4QiG072lf/FHIMj0K0VXQK5iuKw9Ov0JTT3PBrgNBK9dxZIvXH
K+KO4woTa0O+hh5y10P7PuFlkBZHvHtWS2VLhadttM4y2tD8QRCWMt6gvPyCbTDC
9KREGcDTWwGEWn4xZrDSyU8GsG42SabczKBYMr4hT4kdMWvYT7q1KcScCRmZCAsb
dL4PzBSjd9jiJScTS/E/jC9zHt//VyTNSyc4TWfjM5BMZ58Dz20Uo7NrwEbn/UFW
EhRXO19eQp14RL13jKeHoQoc4PXlrb3ohTsEp/V0AmA5yGCS3ApZtFDyYoqnITEJ
jKCejUSoHDVa+/lQi97A+h0AQmXXM8e3hcpH/5tWElAZ4OwGhzf63OpwPHJQ6/bY
S5/znK9WGr0NcgBRDxJNjbGH/tJgYjB/dZmn/evLodHjT4uZR7opcABBJBBc4Bk8
CALzuPabMwNN5Bntsn3AFDqPtBH95vOz/pwcp6ug0RtyhbpCE7BKdfTUJTRERB2r
20LBg5xDmWaO3zM2/pwH9cLBlgQTAQgAKQUCV+KmGQIbAQUJBaOhPQcLCQgHAwIB
BhUIAgkKCwQWAgMBAh4BAheAACEJEP5DAJxGB7H7FiEEITO8YAqxM+HYJtFz/kMA
nEYHsfsUQhAAsAIf6lAI9xGHtV7zFPsIa9ofR8lu6niKhw6kHPyxLeVHiF0qn6CV
dt50ErtwtzE9JiUeFBdgtKjhjizWVabMTiBP3Q6YNP/MQAQjQq8SRd8vtg01KFbb
o6H7QGAj9fTGiJpdOQviw3qDNXeApg26JGLZvygWy58nPNp2GkB65ZY0U/JiwBIm
vMnvSEdeoEz59zxk+XZ/tMlomfveQSCoSXVSgmOMDK+OkYhIvNfty1gwZQK4r/jo
4OoQqED8AuJFEdbYrMclqOJp2jhJBzNn5xVnKsV6itzR4R1JOegPRG3zsOJsW57Y
OCPXfVLlvgfDfz6OctdERMRqsjkFsXhjqT0KybG++4hwP9yPeP9KN8lbkTwzEn7U
1VoImh6kidtdoSEzGWVO3mLsW5zhXdnSIM1NjbdWv4fabrRaCTo9+0c92OW5SF9+
gwoQTrcB8AoWMd/VdDhE0Z1+9N+kX5EStfuA1+iKc/3tnV5s67EXlG78rL8T89dT
VXn44nNdRCDZu9+yuYmprpd1TtDDWW9vj0AybBt93hexGISiCXRa5XWljwOkM+xE
fwpxDxzMBkv3HFc3B/CjmulcpmYVDI7MnewR6DLYjWRmTOOXdwI4ADRDpu1zPwkO
yAPDg6NoeXhkUAaGAxDz6hNIwbk7TYvuRP+rA/KMUSm3NBJ25VRYQ/zNJU5pY2sg
TWF0aGV3c29uIDxuaWNrbUB0b3Jwcm9qZWN0Lm9yZz7CwZUEEwEIACgCGwECHgEC
F4AFCwkIBwIGFQoJCAsCBRYDAgEABQJqMWMvBQkX8l6jACEJEP5DAJxGB7H7FiEE
ITO8YAqxM+HYJtFz/kMAnEYHsfveyw/+L/4iv+1js5Sa3daJdw4lq4Myr9ugCrtw
I9Ik/hMnVV3k7vGQzxsaZIYA+Wb27pkmDULqttwvsZvITaZXQbpTtzca8PLUydWq
ldKwuktpzhkQwBZQPOaGnxfSIrBDAF7kQSkayMgm0mEk845Hmkwh5d2Tipv8teiW
DF6aczw34fqWcXnvmkSq0+R8ZhKNC4ySddzqi2BbAelbcZDR3cFrfKpqDyp8Bbpr
52hhJHpqLtnj3j5q6RjKRWOQzqM9gXgGcD75t0mQjj9+0YuXUr8jdBMI8DGCV6Cq
KCDbksFonwv/tY35JwmtkwXIrWuAOpLg6ul7ZdiiVzqOvH8xiTR6nkaBiUWIwnSy
b9Kr2RT+NXLyxG8FXvMThryGadZIQA0hidRNWL3NEU/DpWvsPyCTg3BVAr94e2P/
TOBiCl0/Moxg03Qccgfw5y3gBrd0V9B9p2gg/sNMxrW8/fH2E5D1nCCL8YEbRlXn
KVP2/d73Q5H84ERPJJDNnSGNe5sNW78P8JEcxUzeNeWNv4d2PBmBClZI6UFTOXo5
qyu126R/tO4GqekLzIpwvpHW86TWkaAGGNQMHl0JFA/dVFmJMOKh99AT9VGykHnS
kbE9xrQRUP4eUmY2JnUguPRRkZjgFIMJf4qYKk3hYs9q49F5YfqyBqPkoN1vdelF
UHWs5Ji6yaXCwZUEEwEIACgCGwECHgECF4AFCwkIBwIGFQoJCAsCBRYDAgEABQJf
extwBQkQ/n3ZACEJEP5DAJxGB7H7FiEEITO8YAqxM+HYJtFz/kMAnEYHsfshpw//
eju0iMvlXvsTbib8b4Y2Q84m5TBPEmkKh94hi2KQA27b89WhGRG2gFFzE7PsrtM0
RbV9IvG2KHMvUK7zQsHqW9ang6UHeCBNpxWYMkzjH+nI8tyE0fMYaVpNTlcC1/da
Z15BDddwLPMayxq9fofpzP54t3Oehw3lg4oUMKkx4QSaDaK6x/v5yrc2QTYXxtJs
ojP2/RsQh9mGzoDESAvSbgj8oFjllcrTk8rEFkioiCLy/6DJ1uQ0xmucV1bfok3c
U4C3PvfuqTJIP4VRhxt4+AH98FNfx+20DAjW/o8/rcZwmFdtbewAqLmkADMflmGQ
9+oal6vn+b/TUbn1zuuuw2jOyqvVL0Bxg9KSDzPU5TrLIU5eAMwRwCSAeIsRrHGU
dx/HCJYG0MnvdhpoHSZMNsdFCeVmlOCfYN4jJy3iAOI9PUJn+R/MF606S89Mkwf0
tRElY1b9wSUlIcp9OKzP7g732sB1KfHeI9W7LXRsXqTRca1pbCvc1FdaJQCfFGXg
uLEZpMthG2xfkPal0LhqZ1riZOysisoPYCZCXG1Aq7FNrLdRrIqeqSdUxkwFSTI+
MCJwvdMUNnpZx5tQDI4kwQcWOINehkaAJgaJQJmhJpJCav2HzzNV6Ynv/xN4I8e+
euvWm8ipJigIHJF4CyVo1FVruiTtwvNdCJmzS8kgxDDCwZUEEwEIACgCGwECHgEC
F4AFCwkIBwIGFQoJCAsCBRYDAgEABQJbn5nwBQkHf2HUACEJEP5DAJxGB7H7FiEE
ITO8YAqxM+HYJtFz/kMAnEYHsfuOMQ//Q9VMv14jWi1n0QZXhbG/p9xfuBck7VVm
xEVaixp7Wd5mMiND3V0LMiT6b4Sdbu43O5uHETpPeisyIhPMz5SZAkTbr5s5ZPVx
spiQBTKNJyTVLYM4hNE/iJKm70MIzpe1TSS4KWkpjo2Y5glqo/B9VM5qHwgUqHqx
Ygm3OGJB/ez6G584P7BZLt88h2jio4cuCBBiFDykbY+yKomNICukKrN/IbhIwyo6
UMWAXGTHXbuoCqN7dCUC7fyCOLmPdRW4GFvmzR4Dj4e1UpxSkdYfokxPxEAtYzh4
XS3SpRZiTpfrdJxev8nmC/hIZysO/iSwKcTkKvaBHZJSZjGE9+h8ELH7ek/MTGkR
vj6pJ75Lral/7B4pBTxesCq0/kvEiHpsby6AToKz4nWSZA8RiOQ41Py/eJFPRJ+Q
1ZGHKtiVAU9gDUXYTjsVGkSN0OfMix7P4csPKya11ewHSn/7WsOuuJjzIm21cT1T
wFKBOm6RiJ9j7lzZzi9BaK02UnIBj2xM9fX4qqe8zO1g1nIV1wmJ+Jjq1j33Sjel
psCVzA6CtrIwVIx38mu0TIOMOTkz10rUb2nQ31uR/3YV84/dIGj71JyYXkDryPIU
estDwBdK5AXTazxaE3KaCZVjVW6BLoywv5EaHyBPELFoIG8TGIyKWYk+2tVODg3s
jNBidgx46J3CwZUEEwEIACgCGwEFCQWjoT0CHgECF4AFAlflYuEFCwkIBwIGFQoJ
CAsCBRYDAgEAACEJEP5DAJxGB7H7FiEEITO8YAqxM+HYJtFz/kMAnEYHsfsxUxAA
tRoBoKRCeEhckRDuFnt7IC2nRSR+VtPn9sYGGSibCRxelYCnDnC2EvsZ2+E/1z0o
6F4H0wE495Uyiyeb8Lq8dyy47FAWDRPZGTsXdXRFEzLtrDewAndbOXZWrM7YAoUS
ztCtRg9v3SXH7xResQujie1bS7qqfEZaKLot/8EQOkS75OYZBQ443pf7dlB2vYp2
Kvene2KUpRBdiLeqeOJKe94Pue2WhsExw5TL8aY9UWSwkNIoxJ2o8wcZQyyeo0ZG
HEbRtHp4UL7z2Iot614SqOYSv17gbTQ8rE0dGV3T0DGx7bL3uHcVwi4P9Pxpu/LQ
Nu11SSKOs4Ee/6jyfCLO/+8EzZYfVV56dDRN0oyrSDsTHUycqMVYMtOlieNcdHOl
rbfwM1BDnjFkWuRi2rXIvilPEs4Z+BnXYvW3XprSz780Mh9AxXFPufyFd+lf9q21
h6988gJjOreNWAczSiTSFT+hG1IjcJ3w1I4ou0HKYVT7mG5Oxd8JgVLp0Oi2HG6W
HExGlTJa4wzME2yZ5A0t2BaZ/753J9hkw7GjFHBgH/ERJFLP0ge5lk0x5+EdfwPF
LeiiZKojJcLaJ4cobA0X5AqZWHj0rNE1JQKKW6/kJuNWWKrsNJsk295lafRIAMEd
w/cRr4GJD8lL4Ai25WtzMVJFJ/9eilmOz8x7xXy/4hDCwZYEEwEIACkFAlfipgcC
GwEFCQWjoT0HCwkIBwMCAQYVCAIJCgsEFgIDAQIeAQIXgAAhCRD+QwCcRgex+xYh
BCEzvGAKsTPh2CbRc/5DAJxGB7H7xCEQAKH/X147T2z1QX5G4iYh3+LhbtqMVSGt
64fhjmmTbX39D46+AqrpU9Jc44O6C/Qj3dMsIlGeoiqSyA7y7P1ICK2SW+T61z77
VBLY7l6+taR4Tnr4hiNq9ZSx4MPcgXpIxN60IpMVc7H3maNrX1+3r3B++LvC+kLl
24b2jdIcBI+d0nsNDqS9m2m+vnLE+Wy6YdaF1TPGIVz9EidX09/kHNPGNp2Dk9S+
5AdrQHjfqls/XXPIYWAXJ/A3Fx2lgpAqvRA+YMCD9cesPMf7IWCs19P/75venoT0
clE1Lo3ghvigjMDaC18AVK6GL3nos+qxl3x0aNNGrNveGMSUfoYE3lzjupTsIEDB
wO5Y+uz48IAlPQuFDdwk3q8FlhaBaTGsJ8z8iA/reeqiFmmH69kOOG8eAoR/UVZa
VJU1zd0Zd7NmUADXLRuLj+SNvf9nq670gZ8Hu6cAF5/9ilBL7bRO9EQ/J+uG1Eld
RARz4bXc32MEz4K+iLyIkrXVFkU7xOYIVm7EO5mTwkIDmqaOwtzXYVD8LP859a6u
1vzkpgcBrNhWZXLcPLs9mUp273cByfMV/P78JwhlsdvXXcWd7Us6EfLtM6z8ZrXo
VJtf1jG+7OylmttrGZ6XpatCUcnkYXhNZTw527bh+nKLOdGqOPY4Md6KZp9dFxjK
+a3RTovA1QQhzSJOaWNrIE1hdGhld3NvbiA8bmlja21Ad2FuZ2FmdS5uZXQ+wsGV
BBMBCAAoAhsBAh4BAheABQsJCAcCBhUKCQgLAgUWAwIBAAUCajFjLwUJF/JeowAh
CRD+QwCcRgex+xYhBCEzvGAKsTPh2CbRc/5DAJxGB7H7cj8QAJtrE7lIL/oIITmv
P6sv5F2KXEmlnM/2zMm7bP9DxD1dZ0ZWVIeVYjk1OqTHQkgn+ju+VGMnHhDz64zs
nv3v5iE10fzLMl/PRWOeRkTMYGPjRXG/xppBayKjqxw/aLsWhEAGUTghPqBuklPF
eqJoAMoOvDqKzvoO2M6EcYLdj/LIbGjuGNXPk3RGNESqu+H5VSGWj/D8oGcRU0dK
Ggctyd5laldKKKCF87KzceO9bO9wFHGmxBOZ29zxSFZCQ8Nv44S1PdBwZx05/ngv
6YGPG52XExf4vE7RxNm8ImhLhHJHoQyDfdjr0AlEaa3c9Q41Ij4wxH+atZ3P5RAT
MW2Z1EL2hj52JzYDgo8h1MrrWybGqUpxYNDddCkBFHobnA6vjCQxBumm/FQvaF+a
jvttok++su8iwWefpJZkS0Ms6S1ts/u+BKfN2srFUIRmh+Aur1Iu8TWdYVxcIV7a
FzxKzapt7DOpnTWgB6D+ORvVAPQQa9A429jikutuudL3BSes0fLB3c+sZeOoy6xi
zSGbh97mCMYJybWe+a6n+kSu7smAcbgI5CAAMGSbrr7rlpogPna9L4iWF1RXXeWA
GQb0X6hpcDbTdc1/NBO3uSPrNRxJoS4zDl6VCjG34d1rmsFA+7T/q2huEEquVcDw
1IQhk9msFtRlWynQwixNWUunVfENwsGVBBMBCAAoAhsBAh4BAheABQsJCAcCBhUK
CQgLAgUWAwIBAAUCX3sbcAUJEP592QAhCRD+QwCcRgex+xYhBCEzvGAKsTPh2CbR
c/5DAJxGB7H7VWoP/1iSy8ZUuGaqTkYaTbk0h6m+ri6ko8S3eh49kr8GP3E1MylS
+Y1rT6fqURFr39tx2gR6vw9GJMps4CKNHmuDJI3aASmMlINNyqXirkLlFCg7XU6p
wLqAQGT3cEZnZSvY+k1yHECY0f6GRWyZlUhsJWhgVfPa415P+r7QIk/NQZlgDwVp
091R5naXBrWXPsj2HaA1AgP4iupXwwSmBMPbTsRGN0HQLzO5rsn8NueV9k3jNuOx
ov/LxEImSTfIbVgbYQIMXlDxuK+RxiVJJOqsyj1YCIksrubTeoot/Iofkz0MzWQE
Kqmlg8oQA0Hji+T77QYTJhAvaCMgKRc7levEkBWQGb9HMpUUAy9HHRIGoIbY2LLC
ylOJWtdEYR77QpCSQcjxs89VyssYcT7HX1bqzxhYdNEmPwXXEk4HLfs9b6j06lfl
x+Ymiw1GHjNVkU+e5L7K0LVA0v0PFQHGArLVQIquVvlZNvqxCHTfEMRTbm6g4H1S
YhOTdZ30yipHQXn0Rnlyo3xMp19K6n3iYjp5wNE87D1qRnUs0WluInkTkQCIBMJ3
hISHk/EEO3tgrr/fwiTiXwig+KcNLIkJV6wk1FtY0h3COlffWmmXMrQYMT7Ukt8d
kmdVUP1fx51BCnA8h5Rsw3VcV3yRCz7HAKDpBCu2NGYuOM0N/92dubFJaijrwsGV
BBMBCAAoAhsBAh4BAheABQsJCAcCBhUKCQgLAgUWAwIBAAUCW5+Z8AUJB39h1AAh
CRD+QwCcRgex+xYhBCEzvGAKsTPh2CbRc/5DAJxGB7H72AYQAMYBGPKDS2YQvtBJ
7ed8lL7P3TTdfmHBP45gSgX5XsMMU00lzpHq75zGtUC7uF3oK/7bZRqowORGpB+T
7a0FnwG97uAeDQawBsTf1oqy+ffEcMChBqOD3nDYewA8uNLJKjhzSUGxHGifGQKh
Rf7ftwugo1Q7jt+pR6g1xGMrcP9l42OAgbURdJckxOZUciPgznFg/ZuzNgWVOtVc
f2iuTiOVGgqlrWFl5d+oASXVewD2PjANfNy8vRMsAmRT2/4pdkXZojNfcnBDayLg
xdWQKqRWrbN4WUeDFvFk0twUxrLXv8gY42ktdG6eR4qlZWaLd009vDpnlqsIxWlw
t5lRPeN/99tjLJc9UBVeHtf0tbpqiH9MCFbt4w0inmdG2oHZOUivMjVoWdgpW7Ud
r0jy3QNdvIY2jX2sQ2IlzDixRMthb2ZN61LTVmwOTI4tqoYiIXJtowpDhoOYSknw
N2pxEHyl3BIvDk8xJy5r8hMNDDWYDwVFHIiY4IrOwlgJU599HOqZcMSUYQROLRL2
OVc1jTjHk0YcdUn+6qfLyjHNhZ42SVASPMRXt72dakhQCn7oGvkiTNfj28UEDOjd
qv4ZSQC1uFlKY77bxELFmGKA2wYFrbE7TWi2G3rXEuBGgN5a/npcDky4mHLDzWig
+GQLA0fKogMwASd1uWhhFdVbxfuzwsGVBBMBCAAoAhsBBQkFo6E9Ah4BAheABQJX
5WLhBQsJCAcCBhUKCQgLAgUWAwIBAAAhCRD+QwCcRgex+xYhBCEzvGAKsTPh2CbR
c/5DAJxGB7H7RCoQALDD2Tu7CeSRsGiNRgJE1QNEvvoISDpr2LncgOwumsJg9gvL
eOY5fve0AyVbyW/jKkElOGbfGC5HO3JAX8s+uqJLoEF1TmYr/ldBRFDb9YsyYz2s
aBlnUWvWwcDI5HCHfw8BRPw2MhGkB2nt+hQdEteKkaeHIjvkScFzqonsiq2IQkns
bhmyDZj9coaxoCK1JL2xX8pDl24i8alhgDTu3rQJxppqBBixZ3tSXhsp2WSF2bSr
jb97A6XxSfUrVqGsFWqeCXDE53QSzAEYmFFpuL1kvi1jOXlr9CeTc4XGBP7HttPW
U8bgnhA36HzW/MGdhpJ6L7GVoACKhEsB5GTKEzobwONalHg60ufRNk+dIZMr7C2e
EpjBKLYzgevAmbd9k0uOicbVqA24cNWjvNzuRxJGxCA9XQSt9FAhpiNcdvoeSXgx
c8sZp3+0EUuyjYTnahLIk5KjvRRTkILeq1HAffomGvd2PfiT3Iq7vKGHhh5n4cXB
MXi5DpAB36hKIC/ULcGH9khKTlBxfeNntHMm+/mNqwrdKeAfC8MO0rBWXZdWZs4r
wElPcoVtVxPY/CCrJ1vJqfnufc0ZUB8WguLoPxqPLC+ja7Pg/ALRQI1cbJnZD5ht
eAJ/dq2mZ4vS01PyztuwCKYTKIdj6yoMgnIYxmh9xty4FSSzodtHM3c0x5sZwsGW
BBMBCAApBQJX4qYvAhsBBQkFo6E9BwsJCAcDAgEGFQgCCQoLBBYCAwECHgECF4AA
IQkQ/kMAnEYHsfsWIQQhM7xgCrEz4dgm0XP+QwCcRgex+xz3D/9eksv3ex/SE0/P
bzWqX/NJWjw/eguZjHOYl+IQAwo4tf1SK9YP6glHaIFOjSmeG4/7/hrQgHTx0i9M
TRjcMk2zHvfwXcJI/tkcXkQVohcRzJoK/iWdxUQscEyJMLGYDYtrDTXXzfSnC6DS
M5TK/hP34ISVSGbhdPeTQIXFe04yBDQoDQimXGzOEU4vtWpPhCqiSB3KaOjuYsou
9eoqqz1dtn0D5Fh4qL8fAOoF/OEsLW6v2nlWZwD08sm9C9gHhLREgzS61pUw/m8P
oFGmaVCT5aR4lvNtlAUQkrN04ZV1CdJf9jyq10ZNjBQOr2hkIR2sSto//q4DMJxw
jqWQahNKdD4VS585XRzo1m+aJoD0aQjB+r47kzxWF/ruSsCtHwC/DnLxOYSyv1KD
sCCZbyswO40UXaiX4PavlUlmCjjyQgKjVXoFIM3il1jiwjXGvOFrx+RDZtdS88O6
QQezskBdOgr9/cbAy3CpbOZHlvkQ7U/K3H0MrrQjSiGOiyTw78X/1xj6SQRdDWHK
7gUqEuJrseYlt1oqxpBLKpxUFS+QObcwTGX59LHpLoXTuSvP2TjTXuKvDyQ6+mdX
fd1tcr6DOzuoVhjrgmfq0kydjFOTIaocO8+sIVVtS8gFDl75D9uCEcmbM0k7/yu6
+LQSenqmKhj/RvOv1NW1YKDQo1k8Wc7BTQRX5Ti2ARAAnHWApVnCMmgWEXtMndUA
knsl/CQaXFc4X7dNHuGF2ZXdbAjTX0LHhxRXbU/vNUtiq3SNv6I8ArdpIWNOsJBn
BSC98z6z4bhvJLqLp9sz1fozwcoa5OpNEgoZoWNmUn+5sGcf8LJikUPfda0Qwm/X
AFrPgQzerVE4uw0C6MITNYPw9psbtq1Aog2enbNfOko7UDCAtg8k+tsoUnPi6xil
03xQtKclLMjGoyiIkBNFWeKWdgKlwl5CdzZXdsf9+0Sba0pIxFm5F58+CCIxlmfm
4SZOUF3IcwYUr6G6o/nWvDURy8iLwHHLrlihONAO+s+4q0Dqk5A0rlcRN/NaWfAF
rW0blDGEiD4CoQkUn0AfWH+M9/L1kZ4Tg9b88kNrxed63q52EipzIqtc2XJz4K7+
4txNL/YsHsGASi4orBtile/QtxmWSSRRvxuIUspbhsjH37xhxl0BZRlAa8H+M5zG
rVhHkp7WN3p589vsFNMAz8MvZ0ifAQQmRLlL55y64pYedX7SIzPHNRSQJ6ERDhql
d6NNHBtZ74f143VrUwo8aBNmtz3yGGtVv6FJPQ+XXZ9xj3hui2eTZVrWTN4BRFie
VvBYAO1sK00H+KdQiM4zErwXSgiy7+L6UL+r7jHRXTADmUyyjBaPVDkD+yH4xqHz
+/tCHYsaSMY4ffFVsTovvqsAEQEAAcLBfAQYAQgADwIbDAUCajFjswUJFC1efQAh
CRD+QwCcRgex+xYhBCEzvGAKsTPh2CbRc/5DAJxGB7H7/igQALCEi2EWCKc+y4sj
c10hOkSO4hEbSdO+HiNFnGMoAcmcsLWq13T52TrBpvkdbTCdixQzSK5vZttx2qWu
LmThLkVNpOImuRtGnb7vJWooRd5TETFx2pop9sOcep/QGubszZgw09RAAoj/aGUk
JNNkhwvvmxczLMOLfcStgpGm99kta3N+zHoxBPa1rUEDN76UxODgZvrgrYLRagt5
x8s4UHxyTKt1yix6Pd+mdtWG+/JqRNTWLMAEndahfxP4eey+AhGkatKQriAkbVAP
llGGbQtlAr1XTkqUw3b4Re+yJAVC/DP/bsgLTqxKkvd1zAFT6W9SmcrgRRSEFH9p
wxh7bMgoGrUNseskTUTn5hLbi9j/w/Kdov1iMCAzN1qwM4wk59wun/uBZmjdeOg/
MfspO+Iht9EQQSaxMniSSP8YPpaCz6utZW029lIWiaJvSHAaa2WnvfHYs0PwiT7z
w1Lo5rzgaGFPaM/5j9YKrpsmBqqHIPCjEIwjIqnk7DZOBsFrN1ZAZ+1URnniXXsf
nYnUa1Fz17+9wPsDYK/nWd8xEea4ceg9QxJV6NhgNl/df2aLgO4w6V6R/xQ179rP
XG9hQ+mmciPiS/+i+dQGR3N/JqspG2QZCNp5hSDAy+ZS0TmldQKqenkvkqjgdArc
dGMYH3SMZlO7LfLFjVVhAFZdQTdxwsF8BBgBCAAPAhsMBQJfexvCBQkQ++SMACEJ
EP5DAJxGB7H7FiEEITO8YAqxM+HYJtFz/kMAnEYHsfs/+g/9HfQdh6DLeYXPUvTD
EUYVUHlkZw61SjHPQy4SMMBTz7rALeBuxYpR7KTzLaCdtjiHBGGSgsEmQto/GLdT
4Vt25zpx2uxK/tOq041PYRRcZ/aK67M/N2CDmcsCzi9sm6HsOKJkZIwVIiQ10UZ1
YT8FEdC8/KzwnxgmtG/iG2852dDS7Ar55GIuYjEob6emTbM8Z5L21vPvJRpxuvsq
EiMMA/Oyi9jwxhDVCHL+a7pWSR5hZuyvJE4W5zU3loZrLg7kezzbdhWcEENLPiLd
w6mexhUeXgT5nnUwcLe6eFc6VHUUO2Q0vXF2mCHdQLOCGpykL0DWxxth07o0OSqT
KIAeDwsh5YO3dYJ6V5UYVu84xBe5UF5RZ5XDWYyNbifrLiVtb50OBWLekwau/d2V
qrlmWJaGrLJ8B9mxWN8zcWozZtQNDVSo8GU3L8LYY9Sb2nBxOAXRVCyuPwyeQcHa
mvuWokaUniavgEcEEXP2RLlPdJOF6QV0i2mXc5AFq/CfylZOtRZ5WHvASqvtT5ru
lQ/oZ67v/0WILTDYXh34D8ukEU40WNT4cL0XHcXMLhZJ1AQUOn294aG1b2z3N0Dr
Gx5/Mcscz5qTO2tfvbM16jbttrFfjuGGvuTBnEtSaJMhVVmtdFg9MsMAwHMp8zBE
/aSNDF5qmNaio5TEFXO5W+BS3l/CwXwEGAEIAA8CGwwFAlufmjkFCQd8yIMAIQkQ
/kMAnEYHsfsWIQQhM7xgCrEz4dgm0XP+QwCcRgex+2FVD/9PYXS1iX2TjNb8g5H/
8YYdUca7MRKOO/IACKwFll/7h8UKscaDNvdcaYP3pQfwLo8H221I/qSdZglriiG5
fnSIm6yu8aXICY7JNh9fgN9d2s94y2+61JcKTwDSdHeV+l4aSFcMK38xO6Eq9A6u
q6mxtVvNkc4t2UbP7LeTbv3R0wwRR0KTsRc418zJo5SMjbfef8wuEwcVWU6M9K1T
f7nnaL/IIoVy0DDOfGOEc7qtBuAm8TBCxdrZz0mcS0otKiPWPwgMgKjvlZagyBtz
0X541XWXxzJr0VVZwniR8j/pp3GPhkoQwyXgUc9vdy31pqyqWX9xOcLYkRyeGiU/
Zm8prpqxqmslvdJ7Sd6w4lyyrCyrhiVzi+OHkMMwKlQeqOCDgw/a7da4vyc44p3O
AOlg6OK2gaLX2CIUXRBEUNu2pnGjrwsXjGjbTr0dizpH75loC9xop4HxaAz5BGE/
+Lru8ulgt4gqTgf3A5Iq50iDdREKNMx1I9UmOZ4m+rhl8wzYif4KStgYwkxb0yJq
PX4oMQdFMavq87DxSRQP/Hs7alsU58hoA9Y0Iuwn2or7k3TK9j0XNVoqLRTARzso
/scDccVFIzZVkt1WOo488hvG9wY2pTVaOlDEpzr2ieBW8EX1EuMawipdurfLKDPR
eixbpULmaFG4gxx9rkUaW2QYOsLBfAQYAQgADwUCV+U4tgIbDAUJA8JnAAAhCRD+
QwCcRgex+xYhBCEzvGAKsTPh2CbRc/5DAJxGB7H7mu0P/3sxjaSJF4o413kvB6sb
z+ssgMVkwyNnI8pwvMaoNe9FO5ZnGG71rGwJNJpdkypIz6TkSj2ussCwQChA+s1K
2qgRIhHocGkImiWz88XexPU1pGqcV2jS7iZxE243WYMwFUk3DnMpS6nlCayFn3A3
NwVbpovwbncrkdilouNjsDRy1eC+St6w54PsIcxpOPY6397aQl8tZ6QRmEQ6oHkc
8yZ0EuStn15xbAYn20Z/D8LSyhhjukWKe11mUyz/PmcHxC1U7pQ6Mfzle8Ui0WVL
ReMKEKxviUvRthToephEt4obkVEowUUGXCn/ZBCqqnK6aj8LaDxyK5soM+ng89BG
uYnWxQhgrwBAEcE65mXuXU8wQAd1/6KG8kD3sf0DldzjyD8Ph0mP34nMhh4posyA
f8dEBDeC+xi/A2UizuJvUxGu/mOPlyAamt2Ocl6lMudowhreUA+69ZrunyLscltr
33zpOB9oyOUg/yNSd7YqTYDhW48f6UFo5NpGVaCyoOtH3C/ENuE0puevb8o9q9fs
RZCkljvKV9Z4yBMVE3jxFHFhHE+wHca6zwH9llMWDxhjE0X63FMOPkii8w6oBRgu
JyIvctX5Y2VxGQXhvNEdxp1N4cnlMMHZ9+OFfqzE//JNx3t5wxC/ryHxHrmwFfCc
94c6LuEg9aNv5Qjpj/l8EAzgzsFNBFflN0sBEADjeoPYAxoRSKhyTRgX5AwHe18y
f3WrDCKo4jq6Y4J6/dEx5TOR137mlglVfmLdZALCOMKE/MO5wLzbP+b/Aau2mEIL
HjDLHZR5zQnM1cqMp8QMEyd7QzBOdys+LC7LuTVQkPbmfWfxnCRwPAETmydhkTmo
BRMTziHq4hg8mBVgzoApiIwc/VVE9TzdgzlqUwD4599JOGaVnjf4Z3/VflpDjG1G
iRXnwrCFORMRYVQmZ9yeujPmLpnJSJZ8sRGYC7PsTPxJeO9a192x5tM/OVzo/8F+
98yCqcLN6bnCBTTvD1yBRo2uUc0FTTPZ4aSusTr3pWh8w7F+LG+SC7NmOMfG2WJ1
NPfbDtVRgoX5/mNGULqXS1D57IYuXV08swU4mLgbij4oRlIJv2sLDJgHUkQfL6mQ
Ew572so0cOo9INQH1gyQT1alA2OV687SZFon8ekRdwlgnUpq23Ea1VcqFkwcd2pb
CL0wFIWShOGiEr88uXaDEVcjBG4ahxIW30RrfraDRB5j3cSAyyO1evgmdRMMFzUC
MCuTDVi679UEHsa6s1VXXMbkM/z/dYCw8aAqAYvBwRrAPxy/hlXeaFtVNaPFN5pt
Ury0noPjBVpokqUjhqUvWnSj8EchsvoIhkZwliR9nXJ3EnwfUt1zopoaoTctxG/f
LbYJdgIGlAzvDOhrvwARAQABwsObBBgBCAAPAhsCBQJqMWO7BQkULV/wAkAJEP5D
AJxGB7H7wV0gBBkBCAAGBQJX5TdLAAoJEGr+5tSekrYB/5AQAK5d+GWYBO6NccLm
gymjpNZZSk0mTyvf3qx0nOWxGYT5JP9s5oykm4IK59RdUm6lfpLRe6hZXcrLEXZv
REg3MCqOMHDjaTJygC8Cuv/JL7y5unc2/0fAPtYFYYgY/JLkwsOPiLIv0deidUDm
1PelBBcFpJ3JtiEOfg9w4j/duxDo+F+UdMWGm5GngGFx4vrCFBSAaqhcY712my8K
OIJXWOqtk631maG9XcfDBfjfuHvSd7jsiQkQ7g61h+Vbiq4+7vq9H4ikFUiRVVQ8
JA+KmCcSWUZXVKflmHLTEbU1qTOr1ueWqfDbIiXSsVtrrncObWhL2snlZFxnBzPX
tgKwJUks0T5U/D8Q37nLV23JnGk+f/SO9LzI+2GE7DTvllV0HLaTa6///lwQ9HZ4
D7i9kSmZEPnI/YHwYqpNPz//reJ/M4CoqWfFDzTRlBX18M/2d1pcc8kIEcncrWfM
Sg+16GAXTPusKt34z12ga4KZKIm+KDTeJOzL9xUpMX4Gc4IORzmQyVTzMyw6aOLN
jeTpVSritb2wfvRbmUsD7GdPMlhPL6xQRXnorhuoV/9NfKbuZVb3FjfcGEVHY/i2
8j1Vd332U91u8lYqD14mRiVwcoC/qV0sK6/zPd/g4bp5xmNkjW2vr3qVQw3ckV4w
lTMcl7/tRXLZj4DFHRJdhz3Q5fjvFiEEITO8YAqxM+HYJtFz/kMAnEYHsfvgRQ/+
NZELk+UvEq6cLBJBfhM1SENg2+3fdbfRa5ec98C44djF5bCj/fyu+SU8CiMtGcGY
lyGX3ZyXadenLV1A9vuo1YDnh1/kC0aEwza6XvwJuYeoulr12zo/3sEoXFnNqhXy
bbvG4KXno/lRGJREaxVgM/LoPMx5Wrs0ZMIEz2FLBuH2q2DiDR/OrHy5nDuV9BIP
xnOyXUE8zKf/itw8n5jp9q+A2hiiBBjnOWGZI0ad2E0WDNFbs0wOI4LTSZU5k1vU
OFzLI1/omWi6LUyajXsxNAVJNCE10fwZR3GbE0H0tPC8U/olsrBOlLFgwgFUvLf+
aeVBKaDfDNAtVS86eZk+nkV4Fyx1I3pRAEZvPtdMkChkYsELG0E08WgQsj5LpoJG
6wyNChefH08ujSxDMf3F0wp0LtJRBUv1dLVmibercRM5Q4GrUqY+bfpspePTvNn/
Y0rHTOInGPUFdNOALVNs12+jTlJPuvqd6qFwuxGyKUX5seJpEiii2ODWDp2IxT0r
bofxWQJrg3vfQ4un+4MgxICYmPar/eKfhJZ4LcqBBfNIbTQETUTA7161p8C235bd
EWAujrF9DvhI+9h954862jSKf5fdc4pSRD1rhwA+d+iqx1NyBXm2SmvdXXbxeP0p
X3S6NZpJtFvXWUVD3SgTOMsDAooogZ5yOpfsYA6ejOrCw5sEGAEIAA8CGwIFAl97
G6cFCRD75dwCQAkQ/kMAnEYHsfvBXSAEGQEIAAYFAlflN0sACgkQav7m1J6StgH/
kBAArl34ZZgE7o1xwuaDKaOk1llKTSZPK9/erHSc5bEZhPkk/2zmjKSbggrn1F1S
bqV+ktF7qFldyssRdm9ESDcwKo4wcONpMnKALwK6/8kvvLm6dzb/R8A+1gVhiBj8
kuTCw4+Isi/R16J1QObU96UEFwWkncm2IQ5+D3DiP927EOj4X5R0xYabkaeAYXHi
+sIUFIBqqFxjvXabLwo4gldY6q2TrfWZob1dx8MF+N+4e9J3uOyJCRDuDrWH5VuK
rj7u+r0fiKQVSJFVVDwkD4qYJxJZRldUp+WYctMRtTWpM6vW55ap8NsiJdKxW2uu
dw5taEvayeVkXGcHM9e2ArAlSSzRPlT8PxDfuctXbcmcaT5/9I70vMj7YYTsNO+W
VXQctpNrr//+XBD0dngPuL2RKZkQ+cj9gfBiqk0/P/+t4n8zgKipZ8UPNNGUFfXw
z/Z3WlxzyQgRydytZ8xKD7XoYBdM+6wq3fjPXaBrgpkoib4oNN4k7Mv3FSkxfgZz
gg5HOZDJVPMzLDpo4s2N5OlVKuK1vbB+9FuZSwPsZ08yWE8vrFBFeeiuG6hX/018
pu5lVvcWN9wYRUdj+LbyPVV3ffZT3W7yVioPXiZGJXBygL+pXSwrr/M93+DhunnG
Y2SNba+vepVDDdyRXjCVMxyXv+1FctmPgMUdEl2HPdDl+O8WIQQhM7xgCrEz4dgm
0XP+QwCcRgex+0I0EAC8cLhf7PXIhn13WSIQRsGt9hPor4TmbyLq2uEMn8zcHFA9
xXlmXwmq8d9zx5yJKenloWluk2lIw0YxaO+oPFgIjz86Rta66VxdbvNMxpnyH5F1
GJ7uFq+MEZ8ysJgHBBfYEfCteOGhsTCcJ85fZWwi3SL8n/GlERDbUq9K/GSGVZAZ
rlhc6NR0P3nWRm7DrUddqMNAWxnOkv9Exf+f6o5+PdhRvknv/nkCzhix6228Bbe0
rOiwLEIpwq4Andnh+soXRffvgU59San+dwo5e2xdwtVi6BWEea6FPDLvA03csKT7
jcQPdmDFHRXuzKQ9TK2QspMQKRawJCiE8E3o/mBpXXJjY6ddAZebqo7L9Zy4aZF9
Ibxu2yc5IZumB8cjtMrvwAtKS8Ov+aAQSwX2SDFoDSxaxQmxZrKH/ssr8DepBmnw
lVTfAC4p2hq1Xu3cTOc516DvzpqHHmUnoWPMHb3Ri+Bfg7KelqX5qCeF/GV/1ikJ
mw6HjorrPL0yv0m2rM2nYh9gZagQBrOyBz7DxFSZOgeLP4PvPggcl0f6I0eyVR9J
/WxIBYERBbF3wjWv5HTNfdVr5O6T+olg7TkTIudVto4BU+Mu8/xI07QWfQSgZ4C1
nbHqlsJoNYiSeMNTqXdzC75SezXWtKRjZxVXh4pUPY86ovIZ6MOYoLx9IVyUtcLD
mwQYAQgADwIbAgUCW5+aJwUJB3zJ3AJACRD+QwCcRgex+8FdIAQZAQgABgUCV+U3
SwAKCRBq/ubUnpK2Af+QEACuXfhlmATujXHC5oMpo6TWWUpNJk8r396sdJzlsRmE
+ST/bOaMpJuCCufUXVJupX6S0XuoWV3KyxF2b0RINzAqjjBw42kycoAvArr/yS+8
ubp3Nv9HwD7WBWGIGPyS5MLDj4iyL9HXonVA5tT3pQQXBaSdybYhDn4PcOI/3bsQ
6PhflHTFhpuRp4BhceL6whQUgGqoXGO9dpsvCjiCV1jqrZOt9ZmhvV3HwwX437h7
0ne47IkJEO4OtYflW4quPu76vR+IpBVIkVVUPCQPipgnEllGV1Sn5Zhy0xG1Nakz
q9bnlqnw2yIl0rFba653Dm1oS9rJ5WRcZwcz17YCsCVJLNE+VPw/EN+5y1dtyZxp
Pn/0jvS8yPthhOw075ZVdBy2k2uv//5cEPR2eA+4vZEpmRD5yP2B8GKqTT8//63i
fzOAqKlnxQ800ZQV9fDP9ndaXHPJCBHJ3K1nzEoPtehgF0z7rCrd+M9doGuCmSiJ
vig03iTsy/cVKTF+BnOCDkc5kMlU8zMsOmjizY3k6VUq4rW9sH70W5lLA+xnTzJY
Ty+sUEV56K4bqFf/TXym7mVW9xY33BhFR2P4tvI9VXd99lPdbvJWKg9eJkYlcHKA
v6ldLCuv8z3f4OG6ecZjZI1tr696lUMN3JFeMJUzHJe/7UVy2Y+AxR0SXYc90OX4
7xYhBCEzvGAKsTPh2CbRc/5DAJxGB7H7gykP/RaaKu+fsYJG0J6N7ywtmjSah8JN
C8xCDYKkjVWD6G/v3QX9bt5TeRxzSh9aKYp+BBJJ0bpUloVNwvaDMuDIzeqxaoUu
uTNn/I3xt6lxwFCg3+IC92R3j6lhB1ZBP2eV/zN4GQPOw4JrJC7sVhclqE+wxVpE
2+E7SUXVbN0f8yPoOdrjO1FFfEIxv6MfcO1XVFyJ/TIOU3oQU6mQgbFsdpTNUjsy
tkewMfyLpKaTm9tOUZqjisWYfII9vUrU5UaCctEROrcqX0q4cmk4rYV94Fin5Apv
ixsxMFrWaEbLQkZhHg99BpZ5KAVxTFSgLxFyBgnVcmroEGFTMuUV5UJZYP90KNmq
CocAllI1ZySA0/HLK3GCoAPgLEftEalwkhw3iVoaHolDp5v2RmuoPc+X/Les+u42
P4l10gsPo79VPc52I9L7kCAVoBWxQtgtMSPRwWSFIGpHslMZxt1kZAoVFe+mRvRD
Lk3xWhmp1hvTFs2+rF9aFlTa7jxL8XUZRYZK/DPfJAEBynAYFZitXgsLwbfuA7yc
VUQk+QwAyy9aTN2Um+XvIm5DmGtOuqxTwOlQTcQ5GDmAcNntorc5Y4ejPkPVESKH
BcrSuT0LAsbkx6gCv2OdDsqYH7cNmqt/ydVvkAzu15srttxiRhWdaAhdFpukZVO3
fZR8XJRcEdnKbcPHwsObBBgBCAAPBQJX5TdLAhsCBQkDwmcAAkAJEP5DAJxGB7H7
wV0gBBkBCAAGBQJX5TdLAAoJEGr+5tSekrYB/5AQAK5d+GWYBO6NccLmgymjpNZZ
Sk0mTyvf3qx0nOWxGYT5JP9s5oykm4IK59RdUm6lfpLRe6hZXcrLEXZvREg3MCqO
MHDjaTJygC8Cuv/JL7y5unc2/0fAPtYFYYgY/JLkwsOPiLIv0deidUDm1PelBBcF
pJ3JtiEOfg9w4j/duxDo+F+UdMWGm5GngGFx4vrCFBSAaqhcY712my8KOIJXWOqt
k631maG9XcfDBfjfuHvSd7jsiQkQ7g61h+Vbiq4+7vq9H4ikFUiRVVQ8JA+KmCcS
WUZXVKflmHLTEbU1qTOr1ueWqfDbIiXSsVtrrncObWhL2snlZFxnBzPXtgKwJUks
0T5U/D8Q37nLV23JnGk+f/SO9LzI+2GE7DTvllV0HLaTa6///lwQ9HZ4D7i9kSmZ
EPnI/YHwYqpNPz//reJ/M4CoqWfFDzTRlBX18M/2d1pcc8kIEcncrWfMSg+16GAX
TPusKt34z12ga4KZKIm+KDTeJOzL9xUpMX4Gc4IORzmQyVTzMyw6aOLNjeTpVSri
tb2wfvRbmUsD7GdPMlhPL6xQRXnorhuoV/9NfKbuZVb3FjfcGEVHY/i28j1Vd332
U91u8lYqD14mRiVwcoC/qV0sK6/zPd/g4bp5xmNkjW2vr3qVQw3ckV4wlTMcl7/t
RXLZj4DFHRJdhz3Q5fjvFiEEITO8YAqxM+HYJtFz/kMAnEYHsfuwaxAAg7ZuiuuR
Ai70Q6aZFLlG259cyCmTmgwsbUAjFKtqTP5g9URgh1A0JZfS5/MYschSfj8qBYsd
ChdP9VX/d0U9/LCc4sXL24XLnpTw7C9MeelndtXdxBxnPLUTby3ZQ19hZPc3l4XC
52ej35iTG/lr2jQcBHI05fwBiUCuWn7hGiKk2TfUtUpFkcvXObrB2/CC28Mg1d3N
pYu79OY6raQoUGe34aVDdjbTDnx1nxARBfhJwfceid+j/Z6V3JKO0C1TvKgJvBhc
84kRKGT5/PVJR4dnXsYzdgWTDXVw2CUHKVS4taHoBuUAoTGOeu7M0WU1yMoYWsRQ
2auMjxwP4w9sc7hTJt+Oj6o5vW1sBB47PHnl3lDWLt/iG+QL94N3aZXZ1b4yeTzH
i+AZYR9hs3kFpL9dq0WgS72j2BmcSkHdgdXRv5offNHyFNEMjxqB2+w132xMCtNT
4zWah0VJOsfFiAYPUZhDgCY155ULwJXJ+PTHyv2O983xJVmZhsRU+/Z5MoDtXDDe
uCfL31nnKt42sRa1Ce+tHjJEoukT3Ng7GjV1lyuwZ3YX1UpN9BcM8aWrKRUP30Tq
qjdlZLIMGoVv/z9rxYlSsLbn+P7nqaX8Vq8ZeoEh8iaQa+IB7NgXvoIgcP4OP2ya
sPh/GwyuLN/DcnsMJjv+76tjXryzEH0ffZY=
=Wjh5
-----END PGP PUBLIC KEY BLOCK-----
